public/github.svg

<svg width="24" height="24" viewBox="0 0 24 24" fill="none" xmlns="http://www.w3.org/2000/svg">
<g clip-path="url(#clip0_101_271)">
<path d="M11.9995 0.000732422C5.36951 0.000732422 -0.000488281 5.37073 -0.000488281 12.0007C-0.000488281 17.3107 3.43451 21.7957 8.20451 23.3857C8.80451 23.4907 9.02951 23.1307 9.02951 22.8157C9.02951 22.5307 9.01451 21.5857 9.01451 20.5807C5.99951 21.1357 5.21951 19.8457 4.97951 19.1707C4.84451 18.8257 4.25951 17.7607 3.74951 17.4757C3.32951 17.2507 2.72951 16.6957 3.73451 16.6807C4.67951 16.6657 5.35451 17.5507 5.57951 17.9107C6.65951 19.7257 8.38451 19.2157 9.07451 18.9007C9.17951 18.1207 9.49451 17.5957 9.83951 17.2957C7.16951 16.9957 4.37951 15.9607 4.37951 11.3707C4.37951 10.0657 4.84451 8.98573 5.60951 8.14573C5.48951 7.84573 5.06951 6.61573 5.72951 4.96573C5.72951 4.96573 6.73451 4.65073 9.02951 6.19573C9.98951 5.92573 11.0095 5.79073 12.0295 5.79073C13.0495 5.79073 14.0695 5.92573 15.0295 6.19573C17.3245 4.63573 18.3295 4.96573 18.3295 4.96573C18.9895 6.61573 18.5695 7.84573 18.4495 8.14573C19.2145 8.98573 19.6795 10.0507 19.6795 11.3707C19.6795 15.9757 16.8745 16.9957 14.2045 17.2957C14.6395 17.6707 15.0145 18.3907 15.0145 19.5157C15.0145 21.1207 14.9995 22.4107 14.9995 22.8157C14.9995 23.1307 15.2245 23.5057 15.8245 23.3857C18.2069 22.5817 20.277 21.0507 21.7435 19.0084C23.2101 16.966 23.9991 14.5151 23.9995 12.0007C23.9995 5.37073 18.6295 0.000732422 11.9995 0.000732422Z" fill="#DBEAFE"/>
</g>
<defs>
<clipPath id="clip0_101_271">
<rect width="24" height="24" fill="white" transform="translate(-0.000488281 0.000732422)"/>
</clipPath>
</defs>
</svg>

<svg width="24" height="24" fill="none" xmlns="http://www.w3.org/2000/svg"><g clip-path="url(#a)"><path d="M11.9995.0007c-6.63 0-12 5.37-12 12 0 5.31 3.435 9.795 8.205 11.385.6.105.825-.255.825-.57 0-.285-.015-1.23-.015-2.235-3.015.555-3.795-.735-4.035-1.41-.135-.345-.72-1.41-1.23-1.695-.42-.225-1.02-.78-.015-.795.945-.015 1.62.87 1.845 1.23 1.08 1.815 2.805 1.305 3.495.99.105-.78.42-1.305.765-1.605-2.67-.3-5.46-1.335-5.46-5.925 0-1.305.465-2.385 1.23-3.225-.12-.3-.54-1.53.12-3.18 0 0 1.005-.315 3.3 1.23.96-.27 1.98-.405 3-.405s2.04.135 3 .405c2.295-1.56 3.3-1.23 3.3-1.23.66 1.65.24 2.88.12 3.18.765.84 1.23 1.905 1.23 3.225 0 4.605-2.805 5.625-5.475 5.925.435.375.81 1.095.81 2.22 0 1.605-.015 2.895-.015 3.3 0 .315.225.69.825.57a12.0177 12.0177 0 0 0 8.175-11.385c0-6.63-5.37-12-12-12Z" fill="#DBEAFE"/></g><defs><clipPath id="a"><path fill="#fff" transform="translate(-.0005 .0007)" d="M0 0h24v24H0z"/></clipPath></defs></svg>
